svgs/light/ankh.svg

<svg xmlns="http://www.w3.org/2000/svg" viewBox="0 0 320 512"><!-- Font Awesome Pro 6.0.0-alpha2 by @fontawesome - https://fontawesome.com License - https://fontawesome.com/license (Commercial License) --><path d="M304 288H215.375C252.25 252 288 191.625 288 137.125C288 53 230.75 0 160 0S32 53 32 137.125C32 191.625 67.75 252 104.625 288H16C7.199 288 0 295.199 0 304S7.199 320 16 320H144V496C144 504.801 151.199 512 160 512S176 504.801 176 496V320H304C312.801 320 320 312.801 320 304S312.801 288 304 288ZM160.25 288H160.125C139.25 286.125 64 208.875 64 137.125C64 75.25 103.5 32 160 32S256 75.25 256 137.125C256 208.875 180.75 286.125 160.25 288Z"/></svg>

<svg xmlns="http://www.w3.org/2000/svg" viewBox="0 0 320 512"><!--! Font Awesome Pro 6.3.0 by @fontawesome - https://fontawesome.com License - https://fontawesome.com/license (Commercial License) Copyright 2023 Fonticons, Inc. --><path d="M304 288h-88.63C252.3 252 288 191.6 288 137.1C288 53 230.8 0 160 0S32 53 32 137.1C32 191.6 67.75 252 104.6 288H16C7.199 288 0 295.2 0 304S7.199 320 16 320h128v176c0 8.801 7.199 16 16 16s16-7.199 16-16V320h128c8.801 0 16-7.199 16-16S312.8 288 304 288zM160.3 288C139.4 286.1 64 208.9 64 137.1C64 75.25 103.5 32 160 32s96 43.25 96 105.1C256 208.9 180.8 286.1 160.3 288z"/></svg>
